X: 33183
T: Prodigal Son, The
R: hornpipe
M: 4/4
K: Gmajor
B>c|d>ed>B G>Bd>g|b>gd>B A2A>B|c>dc>A F>GA>B|e2d2 d2B>c|
d>ed>B G>Bd>g|b>gd>B A2A>B|c>dc>A F>GA>B|A2G2 G2:|
F>G|A>BA>F D>FA>c|c>Bd>B g2f>g|a2a>g f>ed>c|c2B2 B2F>G|
A>BA>F D>FA>c|c>Bd>B g2a>g|f>ed>B c>AF>G|A2G2 G2:|

